X:10656
T:Meeting Gigi
R:reel
C:Jerry Holland, SOCAN
O:20th Century Cape Breton
S:Tune ofthe Month, March 2000
A:<http://www.jerryholland.com>
N:Contacts ...
N:..... Jerry Holland <jerry@cranfordpub.com>
N:Tune books, related recordings
N:..... Cranford Publications <http://www.cranfordpub.com>
H:Copyrights - www.fiddlesticksmusic.com (SOCAN)
Z:Paul Stewart Cranford 
L:1/8
Q:333
M:C|
K:Ddor
E|FDdc A2 GF|ECGC EFGE|FDdc A2 GF|ECGE ADDE|!
FDdc A2 GF|ECCD EFGE|FAfe dcAF|EcGE ADD:|!
|:c|dedc Addc|Aced cAAG|Accd c2 BG|cded cAcG|!
Adfe d2cG|Addc ABcA|GAce d2 cA|GAcE FDD:|]!
